assets/Saxophone/Flat/saxophone_flat.svg

<svg width="32" height="32" viewBox="0 0 32 32" fill="none" xmlns="http://www.w3.org/2000/svg">
<path d="M23.9619 2.09277L22.1019 2.39277L22.6819 5.98277L24.5519 5.68277L23.9619 2.09277Z" fill="#D3D3D3"/>
<path d="M28.8619 3.00272L28.7119 2.92272C27.2619 2.12272 25.5919 1.83272 23.9619 2.09272L24.5519 5.68272L28.5119 5.03272C29.1119 4.93272 29.5119 4.37272 29.4119 3.77272C29.3619 3.45272 29.1519 3.16272 28.8619 3.00272Z" fill="#212121"/>
<path d="M22.562 2.3125L21.352 2.5125C17.612 3.1225 14.872 6.3625 14.892 10.1525L14.952 18.9625L14.962 20.0125C14.962 20.2625 14.802 20.4925 14.552 20.5525C14.252 20.6225 13.962 20.4225 13.912 20.1225L13.742 18.7225L13.182 14.5525L3.79199 17.8925L7.37199 25.4625C7.53199 25.7725 8.07199 26.7425 8.12199 26.8325C8.94199 28.2925 10.132 29.4025 11.722 29.8425C12.202 29.9725 12.712 30.0525 13.242 30.0525C13.842 30.0525 14.412 29.9625 14.952 29.7925C17.152 29.1025 18.772 27.1025 18.902 24.7025C18.912 24.5825 18.922 24.4625 18.922 24.3425L18.942 9.8225C18.942 7.9725 20.292 6.3925 22.122 6.0925L23.172 5.9125C23.162 5.9025 22.562 2.3125 22.562 2.3125Z" fill="#F9C23C"/>
<path d="M12.682 12.5627L2.822 15.9927C2.182 16.2127 1.842 16.9127 2.072 17.5527C2.292 18.1927 2.992 18.5327 3.632 18.3027L13.492 14.8727C14.132 14.6527 14.472 13.9527 14.242 13.3127C14.022 12.6727 13.322 12.3327 12.682 12.5627Z" fill="#FCD53F"/>
<path d="M16.672 6.24269C17.2906 6.24269 17.792 5.74124 17.792 5.12269C17.792 4.50413 17.2906 4.00269 16.672 4.00269C16.0534 4.00269 15.552 4.50413 15.552 5.12269C15.552 5.74124 16.0534 6.24269 16.672 6.24269Z" fill="#D3D3D3"/>
<path d="M15.302 9.18263C15.9206 9.18263 16.422 8.68119 16.422 8.06263C16.422 7.44407 15.9206 6.94263 15.302 6.94263C14.6834 6.94263 14.182 7.44407 14.182 8.06263C14.182 8.68119 14.6834 9.18263 15.302 9.18263Z" fill="#D3D3D3"/>
<path d="M16.132 11.3727C16.132 11.9912 15.6305 12.4927 15.012 12.4927C14.3934 12.4927 13.892 11.9912 13.892 11.3727C13.892 10.7541 14.3934 10.2527 15.012 10.2527C15.6305 10.2527 16.132 10.7541 16.132 11.3727Z" fill="#D3D3D3"/>
</svg>

<svg xmlns="http://www.w3.org/2000/svg" width="32" height="32" fill="none"><path fill="#D3D3D3" d="m23.962 2.093-1.86.3.58 3.59 1.87-.3-.59-3.59Z"/><path fill="#212121" d="m28.862 3.003-.15-.08a7.41 7.41 0 0 0-4.75-.83l.59 3.59 3.96-.65a1.09 1.09 0 0 0 .35-2.03Z"/><path fill="#F9C23C" d="m22.562 2.313-1.21.2a7.7 7.7 0 0 0-6.46 7.64l.06 8.81.01 1.05c0 .25-.16.48-.41.54-.3.07-.59-.13-.64-.43l-.17-1.4-.56-4.17-9.39 3.34 3.58 7.57c.16.31.7 1.28.75 1.37.82 1.46 2.01 2.57 3.6 3.01a5.663 5.663 0 0 0 3.23-.05c2.2-.69 3.82-2.69 3.95-5.09.01-.12.02-.24.02-.36l.02-14.52c0-1.85 1.35-3.43 3.18-3.73l1.05-.18c-.01-.01-.61-3.6-.61-3.6Z"/><path fill="#FCD53F" d="m12.682 12.563-9.86 3.43c-.64.22-.98.92-.75 1.56.22.64.92.98 1.56.75l9.86-3.43c.64-.22.98-.92.75-1.56-.22-.64-.92-.98-1.56-.75Z"/><path fill="#D3D3D3" d="M16.672 6.243a1.12 1.12 0 1 0 0-2.24 1.12 1.12 0 0 0 0 2.24ZM15.302 9.183a1.12 1.12 0 1 0 0-2.24 1.12 1.12 0 0 0 0 2.24ZM16.132 11.373a1.12 1.12 0 1 1-2.24 0 1.12 1.12 0 0 1 2.24 0Z"/></svg>
